X:1
T:Barrowburn Reel
M:C|
L:1/8
K:D
C:Addie Harper
"D"D2DE FAAd | "G"B2BA BddB | "D"A2AB "Bm"d2de | "Em"fedB "A7"AFEF |!
"D"D2DE FAAd | "G"B2BA Bdde | "D"f2af "A7"e2fe | "G"dB"A7"AB "D"d2 :||!
cd| "A7"e2ef ecBA | "D"f2fg fdBA | "Em"g2ga gecA | e89 "F#m"a2ag f2ef |!
"G"g2ga gecA | "D"a2ag f2ef | "G"g2ag "D"f2ed | "G"dB"A7"AB "D"d2 :|]
